ui_kit/lib/assets/icons/cam_state_on.svg

<svg width="24" height="24" viewBox="0 0 24 24" fill="none" xmlns="http://www.w3.org/2000/svg">
<path fill-rule="evenodd" clip-rule="evenodd" d="M4.58333 8.375C4.58333 7.93777 4.93777 7.58333 5.375 7.58333H14.0833C14.5206 7.58333 14.875 7.93777 14.875 8.375V12.3334V16.2917C14.875 16.7289 14.5206 17.0833 14.0833 17.0833H5.375C4.93777 17.0833 4.58333 16.7289 4.58333 16.2917V8.375ZM16.4583 10.7951V8.375C16.4583 7.06332 15.395 6 14.0833 6H5.375C4.06332 6 3 7.06332 3 8.375V16.2917C3 17.6033 4.06332 18.6667 5.375 18.6667H14.0833C15.395 18.6667 16.4583 17.6033 16.4583 16.2917V13.8718L20.7482 16.936C20.9895 17.1083 21.3069 17.1314 21.5706 16.9957C21.8343 16.86 22 16.5883 22 16.2917V8.37508C22 8.07853 21.8343 7.80685 21.5706 7.67116C21.3069 7.53546 20.9895 7.55851 20.7482 7.73087L16.4583 10.7951ZM20.4167 14.7534L17.0287 12.3334L20.4167 9.91344V14.7534Z" fill="white"/>
</svg>

<svg xmlns="http://www.w3.org/2000/svg" width="24" height="24" fill="none" viewBox="0 0 24 24"><path fill="#fff" fill-rule="evenodd" d="M4.583 8.375c0-.437.355-.792.792-.792h8.708c.438 0 .792.355.792.792v7.917a.792.792 0 0 1-.792.791H5.375a.792.792 0 0 1-.792-.791V8.375Zm11.875 2.42v-2.42A2.375 2.375 0 0 0 14.083 6H5.375A2.375 2.375 0 0 0 3 8.375v7.917a2.375 2.375 0 0 0 2.375 2.375h8.708a2.375 2.375 0 0 0 2.375-2.375v-2.42l4.29 3.064A.792.792 0 0 0 22 16.292V8.375a.792.792 0 0 0-1.252-.644l-4.29 3.064Zm3.959 3.958-3.388-2.42 3.388-2.42v4.84Z" clip-rule="evenodd"/></svg>
